svgs/sharp-regular/diagram-subtask.svg

<svg xmlns="http://www.w3.org/2000/svg" viewBox="0 0 512 512"><!--! Font Awesome Pro 6.6.0 by @fontawesome - https://fontawesome.com License - https://fontawesome.com/license (Commercial License) Copyright 2024 Fonticons, Inc. --><path d="M0 32l512 0 0 192-360 0 0 136 72 0 0-24 0-48 48 0 192 0 48 0 0 48 0 96 0 48-48 0-192 0-48 0 0-48 0-24-96 0-24 0 0-24 0-160L0 224 0 32zM464 336l-192 0 0 96 192 0 0-96z"/></svg>

<svg xmlns="http://www.w3.org/2000/svg" viewBox="0 0 512 512"><!--! Font Awesome Pro 6.4.2 by @fontawesome - https://fontawesome.com License - https://fontawesome.com/license (Commercial License) Copyright 2023 Fonticons, Inc. --><path d="M0 32H512V224H152V360h72V336 288h48H464h48v48 96 48H464 272 224V432 408H128 104V384 224H0V32zM464 336H272v96H464V336z"/></svg>
